Sources/FrostedUI/Resources/Icons.xcassets/compress12.imageset/compress-12.svg

<svg width="12" height="12" viewBox="0 0 12 12" fill="none" xmlns="http://www.w3.org/2000/svg" data-fui-icon="true">
  <path
    d="M6 7.2002C6.19891 7.2002 6.38962 7.27927 6.53027 7.41992L8.07715 8.9668C8.36994 9.2597 8.37001 9.73448 8.07715 10.0273C7.78428 10.3201 7.30947 10.3201 7.0166 10.0273L6.75 9.76074V11.2471C6.7499 11.6612 6.41415 11.9971 6 11.9971C5.58585 11.9971 5.2501 11.6612 5.25 11.2471V9.76074L4.9834 10.0273C4.69053 10.3201 4.21572 10.3201 3.92285 10.0273C3.62999 9.73448 3.63006 9.2597 3.92285 8.9668L5.46973 7.41992C5.61038 7.27927 5.80109 7.2002 6 7.2002ZM10.8125 5.25C11.2267 5.25 11.5625 5.58579 11.5625 6C11.5625 6.41421 11.2267 6.75 10.8125 6.75H1.1875C0.773286 6.75 0.4375 6.41421 0.4375 6C0.4375 5.58579 0.773286 5.25 1.1875 5.25H10.8125ZM6 0C6.41421 1.49772e-08 6.75 0.335786 6.75 0.75V2.23633L7.0166 1.96973C7.30949 1.67684 7.78425 1.67685 8.07715 1.96973C8.37004 2.26262 8.37004 2.73738 8.07715 3.03027L6.53027 4.57715C6.38962 4.71779 6.1989 4.79688 6 4.79688C5.8011 4.79687 5.61037 4.71779 5.46973 4.57715L3.92285 3.03027C3.62998 2.73738 3.62998 2.26262 3.92285 1.96973C4.21574 1.67684 4.6905 1.67685 4.9834 1.96973L5.25 2.23633V0.75C5.25 0.335798 5.5858 1.88113e-05 6 0Z"
    fill="currentColor"
  />
</svg>

<svg xmlns="http://www.w3.org/2000/svg" width="12" height="12" fill="none" data-fui-icon="true" viewBox="0 0 12 12"><path fill="currentColor" d="M6 7.2c.199 0 .39.08.53.22l1.547 1.547a.75.75 0 0 1-1.06 1.06l-.267-.266v1.486a.75.75 0 0 1-1.5 0V9.761l-.267.266a.75.75 0 0 1-1.06-1.06L5.47 7.42A.75.75 0 0 1 6 7.2m4.813-1.95a.75.75 0 0 1 0 1.5H1.188a.75.75 0 0 1 0-1.5zM6 0a.75.75 0 0 1 .75.75v1.486l.267-.266a.75.75 0 1 1 1.06 1.06L6.53 4.577a.75.75 0 0 1-1.06 0L3.923 3.03a.75.75 0 1 1 1.06-1.06l.267.266V.75A.75.75 0 0 1 6 0"/></svg>
